app/dist/common/images/shenzhen-megmeet-e.svg

<svg height="18" viewBox="0 0 18 18" width="18" xmlns="http://www.w3.org/2000/svg"><path d="m0 0h18v18h-18z" fill="#f0f3fa"/><path d="m12 12v-4.5l-1.88 4.5h-2.44l-1.68-4.5v4.5h-2v-6h3.13l1.87 4.5 1.88-4.5h3.12v6z" fill="#01a29a"/></svg>

<!-- by TradingView --><svg width="18" height="18" viewBox="0 0 18 18" xmlns="http://www.w3.org/2000/svg"><path fill="#F0F3FA" d="M0 0h18v18H0z"/><path d="M12 12V7.5L10.12 12H7.68L6 7.5V12H4V6h3.13L9 10.5 10.88 6H14v6h-2Z" fill="#01A29A"/></svg>
